;FLAVOR:Marlin
;TIME:1888
;Filament used: 0.896787m
;Layer height: 0.2
;MINX:102.826
;MINY:93.8
;MINZ:0.2
;MAXX:120.2
;MAXY:115.2
;MAXZ:11
;Generated with Cura_SteamEngine 4.13.1
M140 S48
M105
M190 S48
M104 S200
M105
M109 S200
M82 ;absolute extrusion mode
G28 ;Home
G1 Z15.0 F2000 ;Move the platform
G92 E0
G92 E0
G1 F2700 E-6.5
;LAYER_COUNT:55
;LAYER:0
M107
M204 S1000
G0 F7500 X104.148 Y95.507 Z0.2
;TYPE:SKIRT
G1 F2700 E0
G1 F1500 X104.926 Y94.807 E0.03481
G1 X104.96 Y94.783 E0.03619
G1 X105.863 Y94.261 E0.07088
G1 X105.901 Y94.244 E0.07227
G1 X106.896 Y93.92 E0.10707
G1 X106.937 Y93.911 E0.10847
G1 X108.001 Y93.8 E0.14405
G1 X120 Y93.8 E0.54314
G1 X120.119 Y93.839 E0.5473
G1 X120.2 Y94 E0.5533
G1 X120.2 Y104 E0.8859
G1 X120.161 Y104.119 E0.89006
G1 X120 Y104.2 E0.89606
G1 X107.98 Y104.199 E1.29585
G1 X106.938 Y104.09 E1.33069
G1 X106.897 Y104.081 E1.33209
G1 X105.902 Y103.757 E1.36689
G1 X105.864 Y103.74 E1.36828
G1 X104.96 Y103.217 E1.40301
G1 X104.926 Y103.193 E1.4044
G1 X104.148 Y102.493 E1.43921
G1 X104.12 Y102.461 E1.44062
G1 X103.506 Y101.612 E1.47547
G1 X103.485 Y101.576 E1.47685
G1 X103.062 Y100.624 E1.5115
G1 X103.049 Y100.585 E1.51287
G1 X102.831 Y99.558 E1.54779
G1 X102.827 Y99.516 E1.54919
G1 X102.826 Y98.485 E1.58348
G1 X102.83 Y98.443 E1.58489
G1 X103.048 Y97.416 E1.61981
G1 X103.061 Y97.377 E1.62117
G1 X103.484 Y96.425 E1.65582
G1 X103.505 Y96.389 E1.65721
G1 X104.12 Y95.539 E1.6921
G1 X104.148 Y95.507 E1.69352
G1 F2700 E-4.80648
G0 F7500 X106.896 Y104.92
G1 F2700 E1.69352
G1 F1500 X106.937 Y104.911 E1.69491
G1 X108.001 Y104.8 E1.73049
G1 X120 Y104.8 E2.12958
G1 X120.119 Y104.839 E2.13375
G1 X120.2 Y105 E2.13974
G1 X120.2 Y115 E2.47234
G1 X120.161 Y115.119 E2.47651
G1 X120 Y115.2 E2.4825
G1 X107.98 Y115.199 E2.88229
G1 X106.938 Y115.09 E2.91714
G1 X106.897 Y115.081 E2.91853
G1 X105.902 Y114.757 E2.95334
G1 X105.864 Y114.74 E2.95472
G1 X104.96 Y114.217 E2.98946
G1 X104.926 Y114.193 E2.99084
G1 X104.148 Y113.493 E3.02565
G1 X104.12 Y113.461 E3.02707
G1 X103.506 Y112.612 E3.06191
G1 X103.485 Y112.576 E3.0633
G1 X103.062 Y111.624 E3.09795
G1 X103.049 Y111.585 E3.09932
G1 X102.831 Y110.558 E3.13423
G1 X102.827 Y110.516 E3.13564
G1 X102.826 Y109.485 E3.16993
G1 X102.83 Y109.443 E3.17133
G1 X103.048 Y108.416 E3.20625
G1 X103.061 Y108.377 E3.20762
G1 X103.484 Y107.425 E3.24227
G1 X103.505 Y107.389 E3.24365
G1 X104.12 Y106.539 E3.27855
G1 X104.148 Y106.507 E3.27996
G1 X104.926 Y105.807 E3.31477
G1 X104.96 Y105.783 E3.31616
G1 X105.863 Y105.261 E3.35085
G1 X105.901 Y105.244 E3.35223
G1 X106.896 Y104.92 E3.38704
G1 F2700 E-3.11296
;MESH:soporte_infra_tras.stl(1)
G0 F7500 X119.8 Y103.8
;TYPE:WALL-OUTER
G1 F2700 E3.38704
G1 F1500 X108.011 Y103.8 E3.77914
G1 X107.001 Y103.694 E3.81292
G1 X106.047 Y103.384 E3.84628
G1 X105.181 Y102.883 E3.87956
G1 X104.43 Y102.207 E3.91316
G1 X103.844 Y101.398 E3.94639
G1 X103.436 Y100.48 E3.9798
G1 X103.227 Y99.495 E4.01329
G1 X103.226 Y98.506 E4.04619
G1 X103.435 Y97.521 E4.07968
G1 X103.843 Y96.603 E4.11309
G1 X104.429 Y95.794 E4.14631
G1 X105.18 Y95.118 E4.17992
G1 X106.046 Y94.617 E4.2132
G1 X107 Y94.307 E4.24656
G1 X108.012 Y94.2 E4.28041
G1 X119.8 Y94.2 E4.67248
G1 X119.8 Y103.8 E4.99177
G0 F7500 X119.6 Y103.8
G0 X119.36 Y103.36
G0 X119.2 Y102.4
G1 F1500 X119.2 Y95.6 E5.21794
G1 X111.721 Y95.6 E5.4667
G1 X111.609 Y95.815 E5.47476
G1 X112.164 Y96.614 E5.50712
G1 X112.513 Y97.368 E5.53475
G1 X112.727 Y98.173 E5.56245
G1 X112.799 Y99.003 E5.59016
G1 X112.726 Y99.835 E5.61794
G1 X112.514 Y100.631 E5.64534
G1 X112.16 Y101.393 E5.67329
G1 X111.609 Y102.185 E5.70538
G1 X111.721 Y102.4 E5.71344
G1 X119.2 Y102.4 E5.96219
G0 F7500 X119.2 Y102.2
G1 F2700 E-0.53781
G0 F7500 X107.999 Y102.201
G1 F2700 E5.96219
G1 F1500 X108.713 Y102.121 E5.98609
G1 X109.389 Y101.884 E6.00991
G1 X109.996 Y101.502 E6.03377
G1 X110.502 Y100.996 E6.05757
G1 X110.884 Y100.389 E6.08142
G1 X111.121 Y99.713 E6.10525
G1 X111.201 Y99 E6.12911
G1 X111.121 Y98.287 E6.15298
G1 X110.884 Y97.611 E6.1768
G1 X110.502 Y97.004 E6.20066
G1 X109.996 Y96.498 E6.22446
G1 X109.389 Y96.116 E6.24831
G1 X108.713 Y95.879 E6.27214
G1 X107.999 Y95.799 E6.29603
G1 X107.234 Y95.891 E6.32166
G1 X106.512 Y96.166 E6.34736
G1 X105.877 Y96.603 E6.37299
G1 X105.365 Y97.182 E6.3987
G1 X105.007 Y97.865 E6.42435
G1 X104.822 Y98.614 E6.45001
G1 X104.822 Y99.386 E6.47569
G1 X105.007 Y100.135 E6.50135
G1 X105.365 Y100.818 E6.527
G1 X105.877 Y101.397 E6.5527
G1 X106.512 Y101.834 E6.57834
G1 X107.234 Y102.109 E6.60404
G1 X107.999 Y102.201 E6.62966
G0 F7500 X108.197 Y102.179
G0 X107.997 Y102.604
;TYPE:WALL-INNER
G1 F1500 X108.803 Y102.513 E6.65664
G1 X109.564 Y102.247 E6.68346
G1 X110.247 Y101.817 E6.7103
G1 X110.817 Y101.247 E6.73711
G1 X111.247 Y100.564 E6.76395
G1 X111.513 Y99.803 E6.79077
G1 X111.604 Y99 E6.81765
G1 X111.513 Y98.197 E6.84452
G1 X111.247 Y97.436 E6.87134
G1 X110.817 Y96.753 E6.89818
G1 X110.247 Y96.183 E6.92499
G1 X109.564 Y95.753 E6.95184
G1 X108.803 Y95.487 E6.97865
G1 X107.997 Y95.396 E7.00563
G1 X107.137 Y95.5 E7.03444
G1 X106.325 Y95.809 E7.06333
G1 X105.61 Y96.301 E7.0922
G1 X105.033 Y96.953 E7.12116
G1 X104.63 Y97.722 E7.15004
G1 X104.422 Y98.565 E7.17892
G1 X104.422 Y99.435 E7.20785
G1 X104.63 Y100.278 E7.23673
G1 X105.033 Y101.047 E7.26561
G1 X105.61 Y101.699 E7.29457
G1 X106.325 Y102.191 E7.32343
G1 X107.137 Y102.5 E7.35233
G1 X107.997 Y102.604 E7.38114
G1 F2700 E0.88114
G0 F7500 X119.4 Y103.4
G1 F2700 E7.38114
G1 F1500 X111.147 Y103.4 E7.65564
G1 X108.034 Y103.4 E7.75918
G1 X107.082 Y103.3 E7.79101
G1 X106.21 Y103.017 E7.82151
G1 X105.841 Y102.803 E7.83569
G1 X105.419 Y102.559 E7.85191
G1 X104.73 Y101.939 E7.88273
G1 X104.491 Y101.608 E7.89631
G1 X104.193 Y101.197 E7.9132
G1 X103.818 Y100.353 E7.94392
G1 X103.627 Y99.454 E7.97448
G1 X103.626 Y98.546 E8.00469
G1 X103.817 Y97.648 E8.03522
G1 X104.192 Y96.804 E8.06594
G1 X104.488 Y96.395 E8.08273
G1 X104.729 Y96.062 E8.0964
G1 X105.418 Y95.442 E8.12723
G1 X105.836 Y95.2 E8.1433
G1 X106.209 Y94.984 E8.15763
G1 X107.081 Y94.701 E8.18812
G1 X108.035 Y94.6 E8.22003
G1 X111.147 Y94.6 E8.32354
G1 X119.4 Y94.6 E8.59803
G1 X119.4 Y95.2 E8.61799
G1 X111.478 Y95.2 E8.88148
G1 X111.143 Y95.845 E8.90565
G1 X111.447 Y96.283 E8.92338
G1 X111.816 Y96.815 E8.94492
G1 X112.134 Y97.502 E8.9701
G1 X112.331 Y98.242 E8.99556
G1 X112.397 Y99.009 E9.02117
G1 X112.331 Y99.76 E9.04624
G1 X112.136 Y100.494 E9.0715
G1 X111.809 Y101.198 E9.09732
G1 X111.448 Y101.717 E9.11835
G1 X111.142 Y102.155 E9.13612
G1 X111.478 Y102.8 E9.16031
G1 X119.4 Y102.8 E9.4238
G1 X119.4 Y103.4 E9.44375
G1 F2700 E2.94375
G0 F7500 X111.768 Y100.36
G1 F2700 E9.44375
G1 F1500 X111.621 Y100.676 E9.45534
G1 X111.883 Y99.927 E9.48142
G1 X111.768 Y100.36
G0 F7500 X111.898 Y99.87
G1 F1500 X111.996 Y99 E9.51027
G1 X111.899 Y98.134 E9.53892
G1 X111.945 Y98.307 E9.54488
G1 X112.005 Y99.008 E9.54626
G1 X111.945 Y99.695
G1 X111.898 Y99.87 E9.55229
G1 F2700 E3.05229
G0 F7500 X111.88 Y98.065
G1 F2700 E9.55229
G1 F1500 X111.62 Y97.32 E9.57853
G1 X111.766 Y97.636 E9.59011
G1 X111.88 Y98.065
G0 F7500 X111.578 Y97.229
G1 F1500 X111.124 Y96.508 E9.61802
G1 X110.492 Y95.876 E9.64775
G1 X109.734 Y95.399 E9.67754
G1 X108.89 Y95.104 E9.70728
G1 X107.995 Y95.003 E9.73723
G1 X107.064 Y95.116 E9.76795
G1 X107.162 Y95.085 E9.77137
G1 X108.057 Y94.99 E9.77723
G1 X108.89 Y94.99 E9.7805
G1 X111.147 Y94.99 E9.85556
G1 X110.688 Y95.874 E9.88869
G1 X111.142 Y96.527 E9.89504
G1 X111.475 Y97.006
G1 X111.578 Y97.229 E9.90321
G1 F2700 E3.40321
G0 F7500 X110.485 Y95.398
G1 F2700 E9.90321
G1 F1500 X110.471 Y95.39 E9.90375
G1 X110.489 Y95.39 E9.90382
G1 X110.485 Y95.398
G1 F2700 E3.40382
G0 F7500 X106.966 Y95.148
G1 F2700 E9.90382
G1 F1500 X106.204 Y95.438 E9.93093
G1 X106.37 Y95.342 E9.93731
G1 X106.966 Y95.148 E9.93991
G0 F7500 X106.032 Y95.537
G1 F1500 X105.45 Y95.938 E9.96292
G1 X105.649 Y95.759 E9.97182
G1 X106.032 Y95.537 E9.97382
G0 F7500 X105.258 Y96.11
G1 F1500 X104.805 Y96.623 E9.99628
G1 X105.021 Y96.324
G1 X105.258 Y96.11 E9.99791
G0 F7500 X104.665 Y96.817
G1 F1500 X104.323 Y97.469 E10.02201
G1 X104.53 Y97.003
G1 X104.665 Y96.817 E10.02966
G1 F2700 E3.52966
G0 F7500 X104.251 Y100.368
G1 F2700 E10.02966
G1 F1500 X104.191 Y100.232 E10.0346
G1 X104.017 Y99.415 E10.06239
G1 X104.016 Y98.584 E10.08953
G1 X104.19 Y97.769 E10.11725
G1 X104.252 Y97.629 E10.12234
G1 X104.032 Y98.518 E10.1303
G1 X104.032 Y99.482 E10.13756
G1 X104.251 Y100.368 E10.14932
G0 F7500 X104.664 Y101.182
G1 F1500 X104.531 Y100.998 E10.15687
G1 X104.326 Y100.538 E10.17362
G1 X104.664 Y101.182 E10.18317
G0 F7500 X105.259 Y101.89
G1 F1500 X105.022 Y101.677 E10.19377
G1 X104.806 Y101.379 E10.20601
G1 X105.259 Y101.89 E10.2128
G0 F7500 X106.036 Y102.465
G1 F1500 X105.65 Y102.242 E10.22763
G1 X105.449 Y102.061 E10.23663
G1 X106.036 Y102.465 E10.24189
G0 F7500 X106.978 Y102.856
G1 F1500 X106.371 Y102.659 E10.26312
G1 X106.202 Y102.561 E10.26961
G1 X106.978 Y102.856 E10.27377
G1 F2700 E3.77377
G0 F7500 X110.488 Y102.61
G1 F2700 E10.27377
G1 F1500 X110.471 Y102.61 E10.27434
G1 X110.484 Y102.602
G1 X110.488 Y102.61
G0 F7500 X111.147 Y103.01
G1 F1500 X108.89 Y103.01 E10.34941
G1 X108.056 Y103.01 E10.37714
G1 X107.162 Y102.916 E10.40704
G1 X107.061 Y102.883 E10.41058
G1 X107.995 Y102.997 E10.4154
G1 X108.89 Y102.896 E10.42135
G1 X109.734 Y102.601 E10.45109
G1 X110.492 Y102.124 E10.48088
G1 X111.124 Y101.492 E10.51061
G1 X111.576 Y100.774 E10.53839
G1 X111.469 Y101.003 E10.5468
G1 X111.142 Y101.473
G1 X110.687 Y102.126 E10.5524
G1 X111.147 Y103.01 E10.58555
G0 F7500 X111.585 Y103.099
;TYPE:SKIN
G1 F1500 X111.867 Y103.099 E10.59124
G1 X118.939 Y103.099 E10.73391
G1 X119.16 Y103.038 E10.73854
G1 X119.492 Y102.521 E10.75093
G1 X119.499 Y96.589 E10.87061
G1 X119.513 Y95.471 E10.89317
G1 X118.941 Y94.899 E10.90949
G1 X111.587 Y94.899 E11.05785
G1 X111.389 Y94.984 E11.0622
G1 F2700 E4.5622
G0 F7500 X119.099 Y94.774
G1 F2700 E11.0622
G1 F1500 X119.223 Y94.899 E11.06513
G1 F2700 E4.56513
;MESH:soporte_infra_tras.stl
G0 F7500 X119.8 Y114.8
;TYPE:WALL-OUTER
G1 F2700 E11.06513
G1 F1500 X108.011 Y114.8 E11.45723
G1 X107.001 Y114.694 E11.49101
G1 X106.047 Y114.384 E11.52437
G1 X105.181 Y113.883 E11.55765
G1 X104.43 Y113.207 E11.59126
G1 X103.844 Y112.398 E11.62448
G1 X103.436 Y111.48 E11.65789
G1 X103.227 Y110.495 E11.69139
G1 X103.226 Y109.506 E11.72428
G1 X103.435 Y108.521 E11.75777
G1 X103.843 Y107.603 E11.79118
G1 X104.429 Y106.794 E11.82441
G1 X105.18 Y106.118 E11.85801
G1 X106.046 Y105.617 E11.89129
G1 X107 Y105.307 E11.92465
G1 X108.012 Y105.2 E11.9585
G1 X119.8 Y105.2 E12.35057
G1 X119.8 Y114.8 E12.66987
G0 F7500 X119.6 Y114.8
G0 X119.36 Y114.36
G0 X119.2 Y113.4
G1 F1500 X119.2 Y106.6 E12.89604
G1 X111.721 Y106.6 E13.14479
G1 X111.609 Y106.815 E13.15285
G1 X112.164 Y107.614 E13.18521
G1 X112.513 Y108.368 E13.21284
G1 X112.727 Y109.173 E13.24055
G1 X112.799 Y110.003 E13.26826
G1 X112.726 Y110.835 E13.29604
G1 X112.514 Y111.631 E13.32343
G1 X112.16 Y112.393 E13.35138
G1 X111.609 Y113.185 E13.38347
G1 X111.721 Y113.4 E13.39153
G1 X119.2 Y113.4 E13.64029
G0 F7500 X119.2 Y113.2
G1 F2700 E7.14029
G0 F7500 X107.999 Y113.201
G1 F2700 E13.64029
G1 F1500 X108.713 Y113.121 E13.66418
G1 X109.389 Y112.884 E13.68801
G1 X109.996 Y112.502 E13.71186
G1 X110.502 Y111.996 E13.73566
G1 X110.884 Y111.389 E13.75952
G1 X111.121 Y110.713 E13.78334
G1 X111.201 Y110 E13.80721
G1 X111.121 Y109.287 E13.83107
G1 X110.884 Y108.611 E13.85489
G1 X110.502 Y108.004 E13.87875
G1 X109.996 Y107.498 E13.90255
G1 X109.389 Y107.116 E13.9264
G1 X108.713 Y106.879 E13.95023
G1 X107.999 Y106.799 E13.97413
G1 X107.234 Y106.891 E13.99975
G1 X106.512 Y107.166 E14.02545
G1 X105.877 Y107.603 E14.05109
G1 X105.365 Y108.182 E14.07679
G1 X105.007 Y108.865 E14.10244
G1 X104.822 Y109.614 E14.1281
G1 X104.822 Y110.386 E14.15378
G1 X105.007 Y111.135 E14.17944
G1 X105.365 Y111.818 E14.20509
G1 X105.877 Y112.397 E14.2308
G1 X106.512 Y112.834 E14.25643
G1 X107.234 Y113.109 E14.28213
G1 X107.999 Y113.201 E14.30776
G0 F7500 X108.197 Y113.179
G0 X107.997 Y113.604
;TYPE:WALL-INNER
G1 F1500 X108.803 Y113.513 E14.33474
G1 X109.564 Y113.247 E14.36155
G1 X110.247 Y112.817 E14.38839
G1 X110.817 Y112.247 E14.4152
G1 X111.247 Y111.564 E14.44205
G1 X111.513 Y110.803 E14.46886
G1 X111.604 Y110 E14.49574
G1 X111.513 Y109.197 E14.52262
G1 X111.247 Y108.436 E14.54943
G1 X110.817 Y107.753 E14.57627
G1 X110.247 Y107.183 E14.60309
G1 X109.564 Y106.753 E14.62993
G1 X108.803 Y106.487 E14.65674
G1 X107.997 Y106.396 E14.68372
G1 X107.137 Y106.5 E14.71253
G1 X106.325 Y106.809 E14.74143
G1 X105.61 Y107.301 E14.7703
G1 X105.033 Y107.953 E14.79925
G1 X104.63 Y108.722 E14.82813
G1 X104.422 Y109.565 E14.85701
G1 X104.422 Y110.435 E14.88595
G1 X104.63 Y111.278 E14.91482
G1 X105.033 Y112.047 E14.9437
G1 X105.61 Y112.699 E14.97266
G1 X106.325 Y113.191 E15.00153
G1 X107.137 Y113.5 E15.03042
G1 X107.997 Y113.604 E15.05924
G1 F2700 E8.55924
G0 F7500 X119.4 Y114.4
G1 F2700 E15.05924
G1 F1500 X111.147 Y114.4 E15.33373
G1 X108.034 Y114.4 E15.43727
G1 X107.082 Y114.3 E15.46911
G1 X106.21 Y114.017 E15.4996
G1 X105.841 Y113.803 E15.51379
G1 X105.419 Y113.559 E15.53
G1 X104.73 Y112.939 E15.56083
G1 X104.491 Y112.608 E15.57441
G1 X104.193 Y112.197 E15.59129
G1 X103.818 Y111.353 E15.62201
G1 X103.627 Y110.454 E15.65258
G1 X103.626 Y109.546 E15.68278
G1 X103.817 Y108.648 E15.71331
G1 X104.192 Y107.804 E15.74403
G1 X104.488 Y107.395 E15.76082
G1 X104.729 Y107.062 E15.7745
G1 X105.418 Y106.442 E15.80532
G1 X105.836 Y106.2 E15.82139
G1 X106.209 Y105.984 E15.83573
G1 X107.081 Y105.701 E15.86622
G1 X108.035 Y105.6 E15.89812
G1 X111.147 Y105.6 E16.00163
G1 X119.4 Y105.6 E16.27613
G1 X119.4 Y106.2 E16.29608
G1 X111.478 Y106.2 E16.55957
G1 X111.143 Y106.845 E16.58374
G1 X111.447 Y107.283 E16.60148
G1 X111.816 Y107.815 E16.62301
G1 X112.134 Y108.502 E16.64819
G1 X112.331 Y109.242 E16.67366
G1 X112.397 Y110.009 E16.69926
G1 X112.331 Y110.76 E16.72434
G1 X112.136 Y111.494 E16.7496
G1 X111.809 Y112.198 E16.77542
G1 X111.448 Y112.717 E16.79644
G1 X111.142 Y113.155 E16.81421
G1 X111.478 Y113.8 E16.8384
G1 X119.4 Y113.8 E17.10189
G1 X119.4 Y114.4 E17.12185
G1 F2700 E10.62185
G0 F7500 X111.768 Y111.36
G1 F2700 E17.12185
G1 F1500 X111.621 Y111.676 E17.13344
G1 X111.883 Y110.927 E17.15952
G1 X111.768 Y111.36
G0 F7500 X111.898 Y110.87
G1 F1500 X111.996 Y110 E17.18837
G1 X111.899 Y109.134 E17.21702
G1 X111.945 Y109.307 E17.22297
G1 X112.005 Y110.008 E17.22436
G1 X111.945 Y110.695
G1 X111.898 Y110.87 E17.23038
G1 F2700 E10.73038
G0 F7500 X111.88 Y109.065
G1 F2700 E17.23038
G1 F1500 X111.62 Y108.32 E17.25663
G1 X111.766 Y108.636 E17.26821
G1 X111.88 Y109.065
G0 F7500 X111.578 Y108.229
G1 F1500 X111.124 Y107.508 E17.29612
G1 X110.492 Y106.876 E17.32585
G1 X109.734 Y106.399 E17.35563
G1 X108.89 Y106.104 E17.38537
G1 X107.995 Y106.003 E17.41533
G1 X107.064 Y106.116 E17.44605
G1 X107.162 Y106.085 E17.44946
G1 X108.057 Y105.99 E17.45533
G1 X108.89 Y105.99 E17.45859
G1 X111.147 Y105.99 E17.53366
G1 X110.688 Y106.874 E17.56679
G1 X111.142 Y107.527 E17.57243
G1 X111.475 Y108.006
G1 X111.578 Y108.229 E17.5806
G1 F2700 E11.0806
G0 F7500 X110.485 Y106.398
G1 F2700 E17.5806
G1 F1500 X110.471 Y106.39 E17.58114
G1 X110.489 Y106.39 E17.58121
G1 X110.485 Y106.398
G1 F2700 E11.08121
G0 F7500 X106.966 Y106.148
G1 F2700 E17.58121
G1 F1500 X106.204 Y106.438 E17.60833
G1 X106.37 Y106.342 E17.61471
G1 X106.966 Y106.148 E17.6173
G0 F7500 X106.032 Y106.537
G1 F1500 X105.45 Y106.938 E17.64031
G1 X105.649 Y106.759 E17.64922
G1 X106.032 Y106.537 E17.65122
G0 F7500 X105.258 Y107.11
G1 F1500 X104.805 Y107.623 E17.67367
G1 X105.021 Y107.324
G1 X105.258 Y107.11 E17.6753
G0 F7500 X104.665 Y107.817
G1 F1500 X104.323 Y108.469 E17.69941
G1 X104.53 Y108.003
G1 X104.665 Y107.817 E17.70705
G1 F2700 E11.20705
G0 F7500 X104.251 Y111.368
G1 F2700 E17.70705
G1 F1500 X104.191 Y111.232 E17.712
G1 X104.017 Y110.415 E17.73978
G1 X104.016 Y109.584 E17.76692
G1 X104.19 Y108.769 E17.79464
G1 X104.252 Y108.629 E17.79973
G1 X104.032 Y109.518 E17.80562
G1 X104.032 Y110.482 E17.81045
G1 X104.251 Y111.368 E17.82221
G0 F7500 X104.664 Y112.182
